assets/microsot.svg

<svg xmlns="http://www.w3.org/2000/svg" fill="none" viewBox="0 0 28 28">
  <path fill="#2A2238" d="M13.0585.2c0-.1104572-.0895-.2-.2-.2H.199999C.0895425 0 0 .0895431 0 .2v12.1825c0 .1105.089543.2.2.2h12.6585c.1105 0 .2-.0895.2-.2V.2ZM28 .2c0-.1104572-.0895-.2-.2-.2H15.1415c-.1105 0-.2.0895431-.2.2v12.1825c0 .1105.0895.2.2.2H27.8c.1105 0 .2-.0895.2-.2V.2ZM13.0585 14.5693c0-.1105-.0895-.2-.2-.2H.199999c-.1104565 0-.199999.0895-.199999.2V27.8c0 .1105.089543.2.2.2h12.6585c.1105 0 .2-.0895.2-.2V14.5693Zm14.9415 0c0-.1105-.0895-.2-.2-.2H15.1415c-.1105 0-.2.0895-.2.2V27.8c0 .1105.0895.2.2.2H27.8c.1105 0 .2-.0895.2-.2V14.5693Z"/>
</svg>

<svg width="28" height="28" viewBox="0 0 28 28" fill="none" xmlns="http://www.w3.org/2000/svg">
<path d="M13.0585 0.2C13.0585 0.0895428 12.969 0 12.8585 0H0.199999C0.0895425 0 0 0.0895431 0 0.2V12.3825C0 12.493 0.089543 12.5825 0.2 12.5825H12.8585C12.969 12.5825 13.0585 12.493 13.0585 12.3825V0.2ZM28 0.2C28 0.0895428 27.9105 0 27.8 0H15.1415C15.031 0 14.9415 0.0895431 14.9415 0.2V12.3825C14.9415 12.493 15.031 12.5825 15.1415 12.5825H27.8C27.9105 12.5825 28 12.493 28 12.3825V0.2ZM13.0585 14.5693C13.0585 14.4588 12.969 14.3693 12.8585 14.3693H0.199999C0.0895425 14.3693 0 14.4588 0 14.5693V27.8C0 27.9105 0.089543 28 0.2 28H12.8585C12.969 28 13.0585 27.9105 13.0585 27.8V14.5693ZM28 14.5693C28 14.4588 27.9105 14.3693 27.8 14.3693H15.1415C15.031 14.3693 14.9415 14.4588 14.9415 14.5693V27.8C14.9415 27.9105 15.031 28 15.1415 28H27.8C27.9105 28 28 27.9105 28 27.8V14.5693Z" fill="#2A2238"/>
</svg>
